img/icon-twitter.svg

<?xml version="1.0" encoding="UTF-8"?>
<svg width="18px" height="17px" viewBox="0 0 18 17" version="1.1" xmlns="http://www.w3.org/2000/svg" xmlns:xlink="http://www.w3.org/1999/xlink">
    <!-- Generator: Sketch 63.1 (92452) - https://sketch.com -->
    <title>icon-twitter</title>
    <desc>Created with Sketch.</desc>
    <g id="GIFOS" stroke="none" stroke-width="1" fill="none" fill-rule="evenodd">
        <g id="00-UI-Kit" transform="translate(-1057.000000, -2780.000000)">
            <g id="Footer" transform="translate(328.000000, 1736.000000)">
                <g id="icon-twitter" transform="translate(728.000000, 1042.000000)">
                    <rect id="Rectangle-Copy-9" x="0" y="0" width="20" height="20"></rect>
                    <path d="M18.5024286,2.29975862 C17.788,2.76875032 16.999,3.10811669 16.1568571,3.29175259 C15.4848571,2.49599699 14.5244286,2 13.4615714,2 C11.4224286,2 9.77028571,3.83140812 9.77028571,6.08994976 C9.77028571,6.41086252 9.80071429,6.7232236 9.86414286,7.02163195 C6.796,6.85059851 4.07542857,5.22398043 2.25314286,2.74759619 C1.93514286,3.35386474 1.75342857,4.05600204 1.75342857,4.80494849 C1.75342857,6.2236259 2.40528571,7.47577075 3.39614286,8.21031439 C2.791,8.18961034 2.22142857,8.0032739 1.72257143,7.69901441 L1.72257143,7.74942426 C1.72257143,9.73161187 2.99457143,11.3852352 4.68614286,11.7597085 C4.37542857,11.8555772 4.05014286,11.9037366 3.712,11.9037366 C3.47457143,11.9037366 3.24185714,11.8789818 3.01814286,11.8312724 C3.487,13.4556401 4.85114286,14.6398216 6.46771429,14.6713278 C5.203,15.7690925 3.61085714,16.4221702 1.88114286,16.4221702 C1.58328571,16.4221702 1.28842857,16.4046167 1,16.3659092 C2.63457143,17.525786 4.57514286,18.2031684 6.661,18.2031684 C13.4542857,18.2031684 17.167,11.9703496 17.167,6.56524271 C17.167,6.38745794 17.1648571,6.21057335 17.1575714,6.03638929 C17.8788571,5.45937646 18.5067143,4.73833546 19,3.91782502 C18.3374286,4.24323865 17.6255714,4.46333169 16.8794286,4.56145088 C17.6422857,4.05600204 18.2277143,3.25439529 18.5024286,2.29975862 Z" fill="#CDD6E0"></path>
                    <rect id="Rectangle-Copy-10" x="0" y="0" width="20" height="20"></rect>
                </g>
            </g>
        </g>
    </g>
</svg>

<?xml version="1.0" encoding="utf-8"?>
<!-- Generator: Adobe Illustrator 16.0.0, SVG Export Plug-In . SVG Version: 6.00 Build 0)  -->
<!DOCTYPE svg PUBLIC "-//W3C//DTD SVG 1.1//EN" "http://www.w3.org/Graphics/SVG/1.1/DTD/svg11.dtd">
<svg version="1.1" id="Capa_1" xmlns="http://www.w3.org/2000/svg" xmlns:xlink="http://www.w3.org/1999/xlink" x="0px" y="0px"
	 width="18px" height="17px" viewBox="0 0 18 17" enable-background="new 0 0 18 17" xml:space="preserve">
<title>icon-twitter</title>
<desc>Created with Sketch.</desc>
<g id="GIFOS">
	<g id="_x30_0-UI-Kit" transform="translate(-1057.000000, -2780.000000)">
		<g id="Footer" transform="translate(328.000000, 1736.000000)">
			<g id="icon-twitter" transform="translate(728.000000, 1042.000000)">
				<rect id="Rectangle-Copy-9" fill="none" width="20" height="20"/>
				<path fill="#CDD6E0" d="M18.502,2.3c-0.714,0.469-1.503,0.808-2.346,0.992C15.484,2.496,14.524,2,13.461,2
					c-2.039,0-3.69,1.832-3.69,4.09c0,0.321,0.03,0.633,0.094,0.932C6.796,6.851,4.075,5.224,2.253,2.748
					c-0.318,0.606-0.5,1.309-0.5,2.058c0,1.418,0.652,2.67,1.643,3.405C2.791,8.189,2.222,8.003,1.723,7.699v0.05
					c0,1.982,1.272,3.635,2.963,4.01c-0.311,0.096-0.636,0.145-0.974,0.145c-0.237,0-0.47-0.025-0.694-0.073
					c0.469,1.624,1.833,2.809,3.45,2.841c-1.265,1.098-2.857,1.75-4.586,1.75c-0.298,0-0.593-0.018-0.881-0.057
					c1.635,1.16,3.575,1.838,5.661,1.838c6.793,0,10.506-6.232,10.506-11.638c0-0.178-0.002-0.355-0.009-0.529
					C17.879,5.459,18.507,4.738,19,3.918c-0.662,0.325-1.375,0.545-2.121,0.644C17.643,4.056,18.228,3.254,18.502,2.3z"/>
				<rect id="Rectangle-Copy-10" fill="none" width="20" height="20"/>
			</g>
		</g>
	</g>
</g>
</svg>
